X: 1
T: RSCDS at 90
C: George Meikle
R: strathspey
Z: 2014 John Chambers <jc:trillian.mit.edu>
B: RSCDS 47-4
M: C
L: 1/8
K: F
c>B |\
"F"A>F c>A f>c A>c | "Bb"d>B "F"c>A "Gm"G<G "C7"G>B |\
"F"A>F c>A "Bb"d>e f>g | "Dm"a>f "C7"g<e "F"f2 ||
c>B |\
"F"A>F c>A f>c A>c | "Bb"(3dcB "F"(3cBA "Gm"G<G "C7"G>B |\
"F"(3ABc c>f "Bb"(3Bcd d>b | "Dm"a>f "C"g>e "F"f2 |]
f>g |\
"F"a>f g>e "F7"f>d c>A | "Bb"(3Bcd "F"(3cBA "Gm"G2 "C7"f>g |\
"F"a>f g>e "Dm"f>d c>A | "Dm"d<f "C"e>g "F"f2 ||
f>g |\
"F"a>f "C"g>e "Dm"f>d "Am"c>A | "Bb"(3Bcd "F"(3cBA "Gm"G2 "C7"G>B |\
"F"(3ABc c>f "Bb"(3Bcd d>b | "Dm"a>f "C7"g>e "F"f2 :|
%%center Book47/4704-RSCDS_at_90-F-16-4.abc

%%sep 1 1 500
%%sep 1 1 500

